X:1
T:Title
%%score 1 2 3 4
L:1/8
M:2/2
K:C
V:1 treble nm="Part_1"
V:2 treble-8 nm="Part_2"
V:3 treble-8 nm="Part_3"
V:4 bass nm="Part_4"
V:1
 A8- | A8 | F8 | G8- | G8 | G8 | (3A8 G2 F2 | E4 G4- | G2 A2 B4 | c2 B2 c4- | c2 B2 A4 | G8- | G8 | %13
 z8 | z8 | (3:2:2G8 A4 | (3G4 E6 F2 | (3:2:2G4 A8 | (3B4 c6 d2 | (3e4 d6 c2 | (3:2:4B2 A2 G4 E4 | %21
 (3:2:4A6 G2 G2 F2 | A4 z2 E2- | EF G2 E2 F2- | FG A2 G2 E2- | E2 DC B,4 | C4 z4 | z8 | z8 | z8 | %30
 C3 D E2 F2 | G3 F E2 F2- | FD D4 ^C2 | D2 ^F3 G A2- | AB c3 B A2 | B2 G2 B2 d2- | dcBA G4 | %37
 ^F4 z2 G2 | E2 DC B,2 D2 | C2 D3 E F2 | G2 FE D4 | C4 z2 C2 | CD E3 F G2 | A2 A3 G F2 | %44
 G2 E2 G2 A2 | Bc d2 c2 A2 | B2 G3 F E2- | E2 D2 D2 C2 | E8 | z8 | G8 | F8 | E4 A4- | A2 G2 G2 F2 | %54
 A6 G2 | F4 D4 | A2 A3 G F2 | E8 | F2 G2 A4- | A2 B2 c4 | B8 | z4 B4 | c2 B2 A2 GF | E6 F2 | %64
 G4 A4 | G8 | F8 | E8 | z4 E4 | F2 G2 A2 B2 | c4 B2 A2- | A2 GF G4 | (3:2:2F8 z4 | (3z4 E6 F2 | %74
 (3G4 A6 B2 | (3c4 B6 G2 | (3:2:4A4 B2 c2 d4 | (3c6 B2 G4- | (3:2:6G2 A2 B2 c2 B2 G2 | %79
 (3:2:4A4 G4 F2 E2 | (3:2:4E6 D2 D2 C2 | E8- | E8 | E8 | z8 | z8 | z8 | z8 | z8 | z8 | F8 | G8 | %92
 A8 | B4 c4- | c2 BA G4 | A8 | ^G8- | !fermata!G8 | z8 | !fermata!^G8 | !fermata!A8 | !fermata!A8 | %102
 ^G8 |] %103
V:2
 d8 | c8 | d8 | B8 | c8 | z4 e4 | f2 e2 d2 c2 | B6 c2 | d8 | c8 | z4 A4 | B4 G2 B2- | %12
 B2 (3:2:2e4 f2 g2 | a2 f2 g2 e2- | e2 d2 d2 c2 | (3e6 d2 d4 | (3:2:2e4 c8 | (3:2:2d8 z4 | %18
 (3d4 c6 B2 | (3:2:2G4 d8 | (3z4 B4 c4 | (3:2:2d4 e8 | c4 z4 | z8 | z8 | z8 | A3 G F2 G2- | %27
 GA B3 G A2 | B2 A2 F2 G2 | E2 F2 D4 | E4 z2 A2 | B2 c3 B A2- | A2 GF E4 | ^F4 z2 f2- | fe c3 def | %35
 g3 fed d2 | B2 d2 e2 c2- | cB A2 G4 | z8 | z4 d3 c | B2 c2 d2 g2 | e2 f2 g2 e2- | ed c2 B4 | %43
 c4 d4 | B2 G4 FE | D4 E3 F | G2 E2 C2 c2- | cBAG A2 B2 | c4 z4 | c6 d2 | e8 | d8 | c4 A4 | B8 | %54
 A8 | z4 f4- | f2 e2 d4 | c8 | d4 (3:2:2f4 e2 | c2 d2 e2 f2 | g3 f e2 dc | B4 e4- | e2 d2 c4 | %63
 A4 z2 c2 | d2 B2 c2 d2- | d2 cB c4 | z4 d4 | c6 d2 | e4 c4 | d2 e2 f3 d | e2 g2 f2 d2- | %71
 d2 c2 c2 B2 | (3d6 d2 d4 | (3:2:2B4 c8 | (3d4 f6 e2 | (3e6 f2 g4 | (3f4 z4 g4 | (3a6 g2 e4- | %78
 (3:2:4e2 f2 g4 z4 | (3f4 c4 d4 | (3e4 A6 B2 | c6 A2 | B4 c2 d2 | e3 cef g2 | f2 a2 gf e2 | %85
 c2 d2 B2 (3:2:1c3- | (3:2:2c B2 A4 G2 | A4 z2 e2- | ed f2 g2 e2 | f2 d4 c2 | d4 z4 | %91
 B4 (3:2:2e4 d2 | cB A2 c2 d2 | B2 e4 f2 | e2 g3 f e2- | e2 d2 d2 c2 | e8- | !fermata!e8 | z8 | %99
 !fermata!B8 | !fermata!c8 | !fermata!A8 | B8 |] %103
V:3
 A8- | A8 | A8 | G8- | G8 | E8 | D8 | G8 | z4 G4 | A6 B2 | c4 d4 | e8 | E8 | z8 | z8 | %15
 (3:2:2E8 F4 | (3E4 G4 A4 | (3B4 A4 c4 | (3d4 e6 f2 | (3g4 f4 d4 | (3e6 d2 c4 | (3:2:2A4 B8 | A8 | %23
 z4 A4 | F4 E4 | F4 G4 | A3 B c2 B2 | c2 e4 d2 | e2 c2 d2 B2 | c2 A4 G2 | A8 | z8 | z8 | D8 | A8 | %35
 G4 G4- | G2 F2 E4 | D4 E4- | E2 F2 G4 | A2 B3 G A2 | G2 c4 B2 | c2 d2 e4 | E8 | z4 D4 | E6 F2 | %45
 G4 A4 | E4 G4 | F8 | E8- | E8 | E8 | z8 | z8 | z8 | D8- | D8 | D8 | A8- | A8 | A8 | G8- | G8 | %62
 A8 | c8 | B4 A4- | A4 G4 | A8- | A8 | A8 | z8 | z8 | z8 | (3D6 E2 F4 | (3G4 A4 c4 | (3B4 c4 A4- | %75
 (3:2:2A4 G8 | (3d6 c2 B4 | (3A4 c6 B2 | (3G6 F2 E4 | (3F4 G4 A4 | (3:2:2E4 F8 | E8- | E8 | E8 | %84
 z8 | z8 | z8 | z8 | z8 | z8 | A8 | G2 A2 B2 c2 | A8 | G4 z4 | G3 A B2 c2- | cBAG A4 | B8- | %97
 !fermata!B8 | z8 | !fermata!e8 | !fermata!e8 | !fermata!d8 | e8 |] %103
V:4
 D,8 | A,,8 | D,8 | E,8 | C,8- | C,8 | z4 D,4 | (3E,8 D,2 C,2 | B,,8 | A,,8 | A,4 F,4 | %11
 (3:2:2E,8 F,4 | G,4 C,4 | D,4 E,4 | F,8 | (3:2:2C,8 z4 | (3:2:2C,8 A,,4 | (3G,,4 D,4 C,4 | %18
 (3:2:2B,,4 A,,8 | (3z4 D,4 G,4- | (3:2:4G,2 F,2 E,4 A,4 | (3:2:2F,4 E,8 | F,3 E, D,2 C,B,, | %23
 A,,2 B,,2 C,2 D,2- | D,E, F,2 G,4 | A,4 z2 E,2 | F,3 G, A,2 G,2 | E,2 G,2 F,4 | E,2 F,2 D,2 E,2 | %29
 C,2 D,2 B,,4 | A,,8 | G,,2 A,,B,, C,2 D,2- | D,C, D,2 A,,4 | A,8 | F,8 | E,4 z4 | E,3 F, G,2 E,2 | %37
 A,2 G,F, E,2 C,2- | C,2 D,2 E,2 B,,2 | A,,2 G,,4 D,2 | E,2 C,2 G,4 | A,2 G,F, E,4 | C,4 G,4 | %43
 F,8 | E,4 C,4 | B,,4 A,,4 | z2 C,3 B,, C,2 | D,2 D,3 C, D,2 | A,,8- | A,,8 | C,8 | D,8 | A,4 F,4 | %53
 E,8 | F,6 G,2 | A,8 | z8 | A,,8 | D,8 | A,,8 | E,8- | E,8 | A,,8 | z4 A,4 | G,4 F,4 | E,8 | D,8 | %67
 A,,8- | A,,8 | z4 D,4 | C,4 D,4 | E,8 | (3:2:4D,4 F,2 E,2 D,4 | (3E,4 A,,4 z4 | (3G,,4 F,,6 G,,2 | %75
 (3:2:2A,,4 E,8 | (3D,4 B,,4 G,,4 | (3:2:5z4 A,,2 B,,2 C,2 D,2 | (3E,6 F,2 G,4 | (3D,4 E,4 D,4 | %80
 (3:2:2C,4 D,8 | A,,8 | z4 A,,4- | A,,2 B,,2 C,4 | D,3 E, F,2 G,2 | E,2 F,2 G,2 E,2- | %86
 E,D, C,2 B,,4 | z2 A,,4 A,2- | A,G, A,2 G,2 A,2- | A,G, F,2 E,4 | D,8 | E,8 | F,8 | G,4 A,4 | %94
 E,8 | F,8 | E,8- | !fermata!E,8 | z8 | !fermata!E,8 | !fermata!A,8 | !fermata!F,8 | E,8 |] %103

